!!!OTL: Kanghan haozi
!!!ARE: Asia, China,ÿAnhui Tongling
!! III, 541
!!!SCT: C2049
!!!YEM: Copyright 1995, estate of Helmut Schaffrath.
**kern
*ICvox
*Ivox
*M2/4
*k[f#c#g#]
*A:
{8.b
16cc#
8f#
8a
=1
4b
4b
=2
8.cc#
16ee
8cc#
8b
=3
8a
8b
8cc#
8ee
=4
8b
8cc#
8b
8a}
=5
{8f#
4f#
8a
=6
4b
4b}
=7
{8.cc#
16ee
8cc#
8b
=8
8.a
16b
8cc#
8ee
=9
8b
8cc#
8b
8a
=10
8a
4.f#}
=11
{8b
16b
16cc#
8e
8f#
=12
4a
4a}
=13
{8e
4e
8f#
=14
4a
4a
=15
8.b
16cc#
8a
8f#
=16
4e
4e}
==
!!!AGN: Xiaodiao. Nongtian laodong
!!!AMT: simple duple
!!!AIN: vox
!!!EED: Helmut Schaffrath
!!!EEV: 1.0
*-
